!!!OTL: Graf von Rom.
!!!OTL-incipit: Est Virgo coeli rore
!!!ODT: 1646
!!!ARE: Europa, Mitteleuropa, Deutschland
!!!YOR: 1, S. 144
!!    1646 Handschrift Kloster Seeon
!!!SCT: Q0014B
!!!TXL: @@LAT
!!!YEM: Copyright 1995, estate of Helmut Schaffrath.
**kern	**text
*ICvox	*
!! Irregular meter.
*MX	*
*k[b-]	*
*F:	*
!LO:TX:a:t=[transponiert nach f]	!
2r	.
4r	.
{4f	Est
=1	=1
4f	Vir-
4f	-go
4a	coe-
4b-	-li
=2	=2
2cc	ro-
2cc	-re...
4r}	.
{4cc	.
=3	=3
4cc	.
4cc	.
4.ee-	.
8ee-	.
2cc	.
4r}	.
{4cc	.
=4	=4
4a	.
4a	.
4b-	.
4cc	.
=5	=5
2dd	.
2cc	.
4r}	.
{4cc	.
=6	=6
4b-	.
4a	.
8b-L	.
8ccJ	.
4g	.
=7	=7
2f	.
4r}	.
{4cc	.
=8	=8
4cc	.
4dd	.
4cc	.
4b-	.
=9	=9
2a	.
2g	.
4r}	.
{4g	.
=10	=10
4a	.
4b-	.
4.cc	.
8a	.
=11	=11
2g	.
4r}	.
{4a	.
=12	=12
4.f	.
8f	.
4f	.
8gL	.
8aJ	.
=13	=13
2g	.
2f	.
4r}	.
{4cc	.
=14	=14
8ddL	.
8ccJ	.
4b-	.
4.a	.
8g	.
=15	=15
1f;}	.
==	==
!!!AGN: Ballade, Pilger - Reise, Gefangenschaft, Befreiung, Ehe, Liebe;, geistlich
!! geistliche Kontrafaktur mit Tonangabe des "Graf von Rom"
!!!ONB: ESAC (Essen Associative Code) Database: BALLADE
!!!AMT: irregular
!!!AIN: vox
!!!EED: Helmut Schaffrath
!!!EEV: 1.0
!!!source: Deutsche Volkslieder mit ihren Melodien. Balladen. Herausgegeben vom Deutschen Volksliedarchiv. Erster Band Balladen. Berlin und Leipzig 1935.
!!!page: 144
!!!ENC: Anna Maria Matuszewska
!!!EEV: 2025/02/13
*-	*-
